!!!!SEGMENT: pl-kozmzk--mzk-m-188_kraszewski-jozef-ignacy--fantazyjka-z-ulubionej-spiewki-na-fortepian.krn
!!!cenid: 18xx:3052
!!!COM: Kraszewski, Józef Ignacy
!!!COM-rismID: pe30114991
!!!CDT: 1812-1887
!!!CNT:
!!!OTL: Fantazyjka z ulubionej śpiewki na fortepian
!!!PDT:
!!!AGN: Secular
!!!SMS-siglum: PL-KOZmzk
!!!SMS-shelfmark: mzk/m/188
!!!SMS-shelfwork: W
!!!SMS-variant:
!!!SMS-altvar:
!!!NIFC-rismSourceID: 1001084635
!!!NIFC-rismChildID: 1001084635
!!!NIFC-islandoraID: pl-kozmzk:2895
!!!URL-pdf-islandora: https://repozytorium.nifc.pl/islandora/object/pl-kozmzk%3A2895/datastream/PDF/view
!!!URL-scan: https://polish.musicsources.pl/pl/lokalizacje/galeria/druki-muzyczne/7434 @EN{Scan on Polish Music Sources Website} @PL{Skany w portalu Dziedzictwo Muzyki Polskiej w otwartym dostępie}
!!!IIIF:
!!!ONB-nifc:
!!!OMD: Andante.
!!!AIN: 1 piano
!!!key:
**kern	**kern	**dynam
*part1	*part1	*part1
*staff2	*staff1	*
*Ipiano	*Ipiano	*
*I"Piano.	*I"Piano.	*
*clefF4	*clefG2	*
*k[f#c#g#]	*k[f#c#g#]	*
*A:	*A:	*
*M4/4	*M4/4	*
*met(c)	*met(c)	*
=1	=1	=1
!	!LO:TX:a:t=FANTAZYJKA.	!
4c#>\	4a 4e/	pp
4ryy	8.g#L 8.B/	.
.	16f#Jk 16d/	.
4ryy	4e 4c#/	.
4A#X 4Gn\	4e 4c#/	.
=2	=2	=2
(4B 4F#\	4e^/	.
4F# 4D\)	8.dL 8.B/	.
.	16c#Jk 16A/	.
4E\	4c# 4A/	.
4E\	4B 4G#/	.
=3	=3	=3
!	!LO:TX:a:t=Kraszewskiego.	!
4EE\	4B< 4E</	f
8.FF##XL 8.EE\	8.A#X<L 8.E</	.
16GG#Jk 16EE\	16B<Jk 16E</	.
4AA 4EE\	4c#< 4E</	.
4AA#X 4EE\	4c#< 4E</	.
!!LO:LB:g=original
=4	=4	=4
[4BB 4EE\	4e 4G#</	.
!	!	!LO:HP:a
4BB] 4EE\	8.dL 8.G#</	>
.	16c#/Jk	.
4E 4EE\	8.BL 8.G#</	.
.	16c#/K	.
4r	8.d/	.
.	16d#X/Jk	]
=5	=5	=5
4c# 4A 4C#\	4ee 4a 4e/	p
4G# 4E\	8.cc#L 8.d/	.
.	16bJk 16d/	.
4E#X\	4a 4c# 4B/	.
4C#/	4g# 4c# 4B/	.
=6	=6	=6
*	*^	*
4F# 4FF#/	4a 4c# 4A/	2ryy	.
4A 4AA\	4cc# 4f# 4c#/	.	.
!	!	!	!LO:DY:a
4A 4D#X\	8.f#/L	4cn\	sf
.	16g#/K	.	.
4r	8.a/	4ryy	.
.	16b/Jk	.	.
=7	=7	=7	=7
4A 4E\	4cc# 4e 4c#/	4ryy	>
8B\L	8.dd/L	4e\	.
8A\J	.	.	.
.	16cc#/Jk	.	.
4E\	4ff# 4dd 4g#\	2ryy	.
4EE/	4ee 4dd 4g#\	.	]]
*	*v	*v	*
!!LO:LB:g=original
=8	=8	=8
!	!	!LO:DY:rj
2A 2AA;\	2aa 2cc# 2a;\	f
(4B 4D\	(8gg#\L	p
.	8ff#\	.
4d 4B 4D 4BB\)	8dd\	.
.	8b\J)	.
=9	=9	=9
4c# 4E\	4a/	.
8.B\L	8.g#/L	.
16c#\Jk	16a/Jk	.
4e\	4.cc# 4.a/	.
4E\	.	.
.	8b 8g# 8d/	.
=10	=10	=10
*	*Xtuplet	*
4A\	(>12c#/L	.
.	12e/	.
.	12a/J	.
4E\	12g#/L	.
.	12f#/	.
.	12B/J	.
4F#\	12A/L	.
.	12c#/	.
.	12f#/J	.
4AA#X\	12e/L	.
.	12c#/	.
.	12Gn</J	.
!!LO:LB:g=original
=11	=11	=11
4BB\	12F#</L	.
.	12B</	.
.	12e</J	.
4D\	12d</L	.
.	12c#</	.
.	12B</J	.
.	8qB</	.
8.C#\L	12A</L	.
.	12G#</	.
.	12A</J	.
16AA\Jk	.	.
4EE\	12c#</L	.
.	12B</	.
.	12E</J	.
=12	=12	=12
4EE\	12G#</L	.
.	12E</	.
.	12G#</J	.
8FF##XL 8EE\	12A#X</L	.
.	12E</	.
8GG#J 8EE\	.	.
.	12B</J	.
4AA 4EE\	12cn</L	.
.	12E</	.
.	12c</J	.
4AA#X 4EE\	12c#X</L	.
.	12E</	.
.	12c#</J	.
=13	=13	=13
.	(>8qE</	.
4BB 4EE/	[4e/)	.
4BB 4EE/	12e/L]	.
.	12d/	.
.	12c#/J	.
4E 4GG# 4EE/	12B/L	.
.	12A#X/	.
.	12B/J	.
4r	12c#/L	.
.	12d/	.
.	12d#X/J)	.
!!LO:PB:g=original
=14	=14	=14
4c# 4A 4C#\	(12e/L	.
.	12a/	.
.	12ee/J	.
4G# 4E\	12cc#/L	.
.	12d/	.
.	12b/J	.
4E#X\	12a/L	.
.	12B/	.
.	12c#/J	.
4C#/	12g#/L	.
.	12B/	.
.	12c#/J	.
=15	=15	=15
4F#\	12f#/L	.
.	12A/	.
.	12c#/J	.
4A 4C# 4AA\	12cc#/L	.
.	12c#/	.
.	12f#/J	.
4B#X 4A 4D#X\	12r	.
.	12f#/L	.
.	12g#/J	.
4r	12a/L	.
.	12b/	.
.	12b#X/J	.
=16	=16	=16
4A 4E\	12cc#/L	.
.	12e/	.
.	12a/J	.
4B 4E\	12dd\L	.
.	12cc#\	.
.	12b\J	.
4E\	12ff#\L	.
.	12dd\	.
.	12g#\J	.
4EE/	12ee\L	.
.	12dd\	.
.	12b\J)	.
!!LO:LB:g=original
=17	=17	=17
*Xtuplet	*	*
12AA\L	2aa 2cc# 2a\	f
!LO:TX:b:i:t=ritenuto	!	!
12E\	.	.
12A\J	.	.
12c#\L	.	.
12e\	.	.
12A\J	.	.
4B 4F# 4D\	(12gg#\L	.
.	12ff#\	.
.	12dd\J	.
4r	12b/L	.
.	12e#X/	.
.	12f#/J)	.
=18	=18	=18
4c# 4A 4E\	(12d#X/L	.
.	12e/	.
.	12a/J	.
4e 4c# 4E\	12g#/L	.
.	12a/	.
.	12a#X/J	.
4d 4G# 4E\	12b\L	.
.	12cc#\	.
.	12dd\J	.
4r	12dd#X\L	.
.	12ff#\	.
.	12ee\J)	.
=19	=19	=19
*	*^	*
2c# 2A 2E 2C#\	(12aaL 12ee 12a\	2ryy	.
.	12gg#\	.	.
.	12ff#\J	.	.
.	12ee\L	.	.
.	12ff#\	.	.
.	12cc#\J	.	.
4r	12ee\L	4ryy	.
.	12dd#X\	.	.
.	12ee\J)	.	.
4E 4EE/	12g#/L	4d\	.
.	12.cc#;/	.	.
.	24b/Jk	.	.
*	*v	*v	*
!!LO:LB:g=original
=20||	=20||	=20||
*M3/4	*M3/4	*
4AA/	4.cc# 4.e 4.c#/	.
8E\L	.	.
8A\	8cc#L 8e/	.
8E\	8dd 8f#/	.
8A\J	8cc#J 8e/	.
=21	=21	=21
8EE\L	8cc#L 8e/	.
8E\	8b 8d/	.
8G#\	8b 8d/	.
8F##X\	8a#X 8d/	.
8G#\	8a# 8c#/	.
8E\J	8bJ 8d/	.
=22	=22	=22
4EE/	4b 4d/	.
8E\L	8a#XL 8c#X/	.
8G#\	8b 8d/	.
8E\	8cc# 8e/	.
8G#\J	8bJ 8d/	.
=23	=23	=23
8AA\L	8bL 8d/	.
8E\	8a 8c#/	.
8A\	8a 8c#/	.
8E\	8g# 8B/	.
8A\	8a 8c#/	.
8E\J	8bJ 8d/	.
=24	=24	=24
*^	*	*
4AA/	4ryy	4.cc# 4.e/	.
8E\L	4ryy	.	.
8A\J	.	8cc#L 8e/	.
8B/L	4C#\	8.dd 8.g# 8.e#X/	.
8G#/J	.	.	.
.	.	16cc#Jk 16g# 16e#/	.
*v	*v	*	*
!!LO:LB:g=original
=25	=25	=25
*	*^	*
4F#\	(<8b/L	4f# 4c#\	.
.	8a/J)	.	.
4A\	(<8g#/L	4c#\	.
.	8f#/J)	.	.
4A 4D#X\	8g#L 8f# 8B#X/	4ryy	.
.	8aJ 8f# 8B#/	.	.
*	*v	*v	*
=26	=26	=26
8EE\L	8aL 8c#/	.
8E\	8cc# 8e/	.
8A\	8dd 8f#/	.
8E\	8cc# 8e/	.
8B\	8.ff# 8.dd 8.g#/	.
8E\J	.	.
.	16eeJk 16dd 16g#/	.
=27	=27	=27
4.A\	4.aa 4.cc# 4.a\	.
8A\L	8cc#L 8a\	.
8B 8A\	8dd 8a\	.
8B#XJ 8A\	8dd#XJ 8a\	.
=28	=28	=28
4c# 4A\	4ee 4a\	.
4e 4A\	8dd#XL 8b#X\	.
.	8ee 8cc#\	.
8dL 8A\	8ff# 8a\	.
8c#J 8A\	8eeJ 8cc#\	.
=29	=29	=29
4E 4EE/	8eeL 8cc# 8e/	.
.	8dd 8b 8e/	.
8BL 8E\	8dd 8e/	.
8A#X 8E\	8cc# 8e/	.
8A# 8E\	8cc# 8e/	.
8BJ 8E\	8ddJ 8e/	.
!!LO:LB:g=original
=30	=30	=30
4E 4EE/	4dd 4b 4d/	.
*clefG2	*	*
8.g#/L	8.bbL 8.b\	.
16f#/K	16aaK 16a\	.
8.e/	8.gg# 8.g#\	.
16d/Jk	16ff#Jk 16f#\	.
=31	=31	=31
(8d'/L	(8ff#L 8a 8f#'/	.
8c#'/	8ee 8a 8e'/	.
8c#'/	8ee 8a 8e'/	.
8A'/	8cc# 8e 8c#'/	.
8c# 8A'/	8ee 8a 8e'/	.
8eJ 8A'/)	8aaJ 8cc# 8a'/)	.
=32	=32	=32
4e 4c#/	4.aa 4.cc# 4.a\	.
*clefF4	*	*
8AA/	.	.
8c#\L	8eeL 8a 8e/	.
8B\	8dd 8e 8d/	.
8A\J	8cc#J 8e 8c#/	.
=33	=33	=33
8F#L 8BB\	8cc#L 8e 8c#/	.
8F#J 8BB\	8bJ 8d 8B/	.
4B 4D\	8r	.
.	8ddL 8f# 8d\	.
4d 4B\	8ff# 8b 8f#\	.
.	8bbJ 8dd 8b\	.
=34	=34	=34
4e 4E\	8bbL 8dd 8b\	.
.	8aa 8cc# 8a\	.
4E 4EE/	8aa 8cc# 8a\	.
.	8gg#J 8b 8g#\	.
4e 4G# 4E\	8.ccc#L 8.ee 8.cc#\	.
.	16bbJk 16dd 16b\	.
!!LO:PB:g=original
=35	=35	=35
16E\	16r	.
16r	16e 16c#/	.
16D#X\	16r	.
16r	16e 16A/	.
16E\	16r	.
16r	16e 16B/	.
16BB/	16r	.
16r	16e 16B/	.
16E\	16r	.
16r	16e 16B/	.
16Dn/LL	16r	.
16BB/JJ	16e 16B/	.
=36	=36	=36
16AA/	16r	.
16r	16e 16A/	.
16BB/	16r	.
16r	16e 16A/	.
16BB#X/	16r	.
16r	16e 16A/	.
16C#/	16r	.
16r	16e 16A/	.
16D\	16r	.
16r	16e 16A/	.
16D#X\	16r	.
16r	16e 16A/	.
=37	=37	=37
16F#\	16r	.
16r	16e 16A/	.
16E\	16r	.
16r	16e 16A/	.
16A\	16r	.
16r	16e 16A/	.
16E\	16r	.
16r	16e 16A/	.
16D#X\	16r	.
16r	16e 16A/	.
16E\	16r	.
16r	16e 16A/	.
!!LO:LB:g=original
=38	=38	=38
16GG#/	16r	.
16r	16e 16B/	.
16Dn\	16r	.
16r	16e 16B/	.
16E\	16r	.
16r	16e 16B/	.
16B\	16r	.
16r	16e 16B/	.
16A\	16r	.
16r	16e 16B/	.
16G#\	16r	.
16r	16e 16B/	.
=39	=39	=39
16AA/	16r	.
16r	16e 16A/	.
16C#/	16r	.
16r	16e 16A/	.
16E\	16r	.
16r	16e 16A/	.
16c#\	16r	.
16r	16e 16A/	.
16B\	16r	.
16r	16e 16A/	.
16A\	16r	.
16r	16e 16A/	.
=40	=40	=40
16BB/	16r	.
16r	16e 16B/	.
16E\	16r	.
16r	16e 16B/	.
16G#\	16r	.
16r	16e 16B/	.
16d\	16r	.
16r	16e 16B/	.
16c#\	16r	.
16r	16e 16B/	.
16B\	16r	.
16r	16e 16B/	.
!!LO:LB:g=original
=41	=41	=41
16C#/	16r	.
16r	16e 16A/	.
16E\	16r	.
16r	16e 16A/	.
16A\	16r	.
16r	16e 16A/	.
16e\	16r	.
16r	16e 16A/	.
16f#\	16r	.
16r	16e 16A/	.
16c#\	16r	.
16r	16e 16A/	.
=42	=42	=42
8qD/	.	.
16c#\	16r	.
16r	16d 16B/	.
16B\	16r	.
16r	16d 16B/	.
16A#X\	16r	.
16r	16d 16B/	.
16B\	16r	.
16r	16d 16B/	.
16E#X\	16r	.
16r	16d 16B/	.
16F#\	16r	.
16r	16d 16B/	.
=43	=43	=43
8qFF#/	.	.
16F#\	16r	.
16r	16B 16A/	.
16En\	16r	.
16r	16B 16G#/	.
16D#X\	16r	.
16r	16e 16B/	.
16E\	16r	.
16r	16e 16B/	.
16Dn\	16r	.
16r	16e 16B/	.
16BB/	16r	.
16r	16e 16B/	.
!!LO:LB:g=original
=44	=44	=44
32qqC#/LLL	32qqa/LLL	.
[32qqCC#/JJJ	[32qqA/JJJ	.
8.C#L 8.CC#/]	8.aL 8.A/]	.
16BBJk 16BBB/	16g#XJk 16G#X/	.
(8AAL 8AAA/	(8aL 8A/	.
8GG#XJ 8GGG#X/)	8b 8B/)	.
(8EL 8EE/	(8cc# 8c#/	.
8DJ 8DD/)	8bJ 8B/)	.
=45	=45	=45
(8C#L 8CC#/	(8cc#L 8c#/	.
8DJ 8DD/)	8bJ 8B/)	.
(8EL 8EE/	(8cc#L 8c#/	.
8F#J 8FF#/)	8ddJ 8d/)	.
(8G#XL 8GG#X/	(8ff#L 8f#/	.
8AJ 8AA/)	8eeJ 8e/)	.
=46	=46	=46
8BL 8BB/	8gg#XL 8g#^^\	.
8EJ 8EE/	16eeL 16e'\	.
.	16eeJJ 16e'\	.
8c#L 8C#/	8aaL 8a^^\	.
8EJ 8EE/	16eeL 16e'\	.
.	16eeJJ 16e'\	.
8G#XL 8GG#X/	8bbL 8b^^\	.
8EJ 8EE/	16eeL 16e'\	.
.	16eeJJ 16e'\	.
=47	=47	=47
8AL 8AA/	8ccc#L 8cc#^^\	.
8EJ 8EE/	16eeL 16e'\	.
.	16eeJJ 16e'\	.
8BL 8BB/	8dddL 8dd^^\	.
8EJ 8EE/	16eeL 16e'\	.
.	16eeJJ 16e'\	.
8c#L 8C#/	8eeeL 8ee^^\	.
8EJ 8EE/	16eeL 16e'\	.
.	16eeJJ 16e'\	.
*clefG2	*	*
!!LO:LB:g=original
=48	=48	=48
*	*8va	*
16ff#\KL	16aaaKL 16ddd\	.
8.ee\J	8.ggg#XJ 8.bb\	.
*	*X8va	*
16f#/KL	16aaKL 16dd\	.
8.e/J	8.gg#XJ 8.b\	.
*clefF4	*	*
16F#\KL	16aKL 16d/	.
8.E\J	8.g#XJ 8.B/	.
=49	=49	=49
8qEE/	.	.
4EE 4EEE/	2.ryy	.
*rscale:1/2	*	*
26FF#/LLL	.	.
26EE/	.	.
26DD#X/	.	.
26EE/	.	.
26FF#X/	.	.
26GG#X/	.	.
26AA/	.	.
26BB/	.	.
26C#/	.	.
26D/	.	.
26D#X/	.	.
26.F#;/	.	.
52E/JJJk	.	.
*rscale:1	*	*
=50	=50	=50
8qB 8qE/	8qee 8qg#X/	.
4B 4E\	4ee 4g#\	.
8qc# 8qE/	8qee 8qa/	.
4c# 4E\	4ee 4a\	.
8qc#X 8qE/	8qee 8qa#X/	.
4c# 4E\	4ee 4a#\	.
=51	=51	=51
8qd 8qE/	8qee 8qb/	.
2.d 2.E;\	2.ee 2.b;\	.
!!LO:PB:g=original
=52||	=52||	=52||
!!!OMD: Adagio Cantabile.
*^	*^	*
(8A/L	[2.E\	(8cc#/L	[2.e\	.
8G#X/	.	8b/	.	.
8A/	.	8cc#/	.	.
8B/	.	8dd/	.	.
8c#/	.	8ee/	.	.
8A/J	.	8cc#/J	.	.
=53	=53	=53	=53	=53
8A/L	2.E\]	8cc#/L	2.e\]	.
8B/	.	8b/	.	.
8c#/	.	8a/	.	.
8B/	.	8g#X/	.	.
8c#/	.	8a/	.	.
8A/J	.	8e/J	.	.
*v	*v	*	*	*
*	*v	*v	*
=54	=54	=54
8B\L	8gn/L	.
8A\	8f#/	.
8G#X\	8e/	.
8F#X\	8d#X/	.
8G#\	8e/	.
8E\J	8B/J	.
=55	=55	=55
8BB\L	8d/L	.
8C#\	8c#/	.
8D\	8B/	.
8F#\	8A/	.
8BB\	8B/	.
8EE\J)	8E/J)	.
!!LO:LB:g=original
=56	=56	=56
(8C#\L	(>8A/L	.
8D\	8B/	.
8E\	8c#/	.
8A\	8e/	.
8c#\	8a/	.
8d\J	8b/J	.
=57	=57	=57
.	8qe/	.
8e\L	8cc#/L	.
8d\	8b/	.
8c#\	8a/	.
8B\	8g#X/	.
8c#\	8a/	.
8A\J	8gnJ 8e/	.
=58	=58	=58
!	!LO:SIC:v:s=gn	!
8D\L	8g#/L	.
8A\	8f#/	.
8G#\	8e/	.
8F#\	8d/	.
8F#X 8C#\	8d#X/	.
8AJ 8AA\	8cc#/J	.
=59	=59	=59
*	*^	*
8A\L	8eL 8c#/	4ryy	.
8B\	8d#X/	.	.
8c#\	8e/	4ryy	.
8E\	8cc#/	.	.
8BB\	8.ff#/	4dd 4g#X\	.
8E\J)	.	.	.
.	16ee/Jk)	.	.
*	*v	*v	*
=60	=60	=60
(8AA/L	2.r	.
8BB/	.	.
8C#/	.	.
8D/	.	.
8D#X/	.	.
8E/J	.	.
!!LO:LB:g=original
=61	=61	=61
8A\L	(8eeL 8cc#\	.
8c#\	8a\	.
8d\	8b\	.
8e\	8cc#\	.
8f#\	8ff#\	.
8g#\J)	8ee\J	.
=62	=62	=62
8E\L	8ee\L	.
8e\	8dd 8b\	.
8f##X\	8cc#X 8a#X\	.
8e\	8dd 8b\	.
8g#X\	8bb\	.
8e\J	8ddJ 8b\)	.
*clefG2	*	*
=63	=63	=63
(8b/L	(8gg#X\L	.
8g#X/	8ff#\	.
8B/	8ee\	.
8b/	8dd\	.
8g#/	8ee\	.
8e/J	8b\J	.
=64	=64	=64
8f#/L	8dd\L	.
8e/	8cc#\	.
8d/	8b\	.
8e/	8cc#\	.
8d/	8b\	.
8f#/J)	8a\J)	.
*clefF4	*	*
=65	=65	=65
(8e\L	(8eeL 8cc#\	.
8E\	8g#\	.
8G#\	8cc#\	.
8c#\	8ee\	.
8f#\	8aa\	.
8e\J)	8gg#\J)	.
!!LO:LB:g=original
=66	=66	=66
(8d\L	(8gg#\L	.
8B\	8g#\	.
8d\	8ff# 8b\	.
8f#\	8g#\	.
8c#\	8a\	.
8B\J	8b\J)	.
=67	=67	=67
8f#\L	(8bbL 8gg#\	.
8G#\	8b\	.
8f#\	8aa 8ff#\	.
8g#\	8b\	.
8e\	8cc#\	.
8g#\J	8dd\J)	.
=68	=68	=68
8d\L	(8ff#\L	.
8B\	8g#\	.
8G#\	8ee 8cc#\	.
8E\	8g#\	.
8G#\	8dd 8g#\	.
8e\J)	8cc#\J)	.
=69	=69	=69
8E\L	(8ee/L	.
8d\	8e/	.
8c#\	8f#X/	.
8B\	8g#X/	.
8A\	8a/	.
8G#X\J	8b/J	.
=70	=70	=70
8B\L	8dd/L	.
8c#\	8cc#/	.
8d\	8b/	.
8e\	8cc#/	.
8c#\	8a/	.
8d#X\J	8f#X/J)	.
!!LO:LB:g=original
=71	=71	=71
8e\L	(8e\L	.
8E\	8a\	.
8B\	8g#X\	.
8f#\	8dd\	.
8d\	8b\	.
8B\J	16ff#\L	.
.	16ee\JJ)	.
*clefG2	*	*
=72	=72	=72
8qA/	.	.
(8cc#/L	(8aaL 8ee\	.
8b/	8dd#X\	.
8cc#/	8aa 8ee\	.
8a/	8cc#\)	.
8e/	(8cc# 8a\	.
8c#/J)	8e\J)	.
*clefF4	*	*
=73	=73	=73
(8c#\L	8aL 8e/	.
8B\	8d#X/	.
8c#\	8e/	.
8A\	8c#/	.
8E\	8e/	.
8EE\J)	8cc#/J	.
=74	=74	=74
2.AA: 2.AAA;<:/	2.aa: 2.ee: 2.cc#: 2.a: 2.e: 2.c#: 2.A;:/	.
==	==	==
*-	*-	*-
!!!system-decoration: {(s1,s2)}
!!!RDF**kern: > = above
!!!RDF**kern: < = below
!!!ENC: Marcin Jachim
!!!END: 2021-09-09
!!!ENC: Marta Lawrence
!!!END: 2021-10-23
!!!YEC: Copyright 2022 Narodowy Instytut Fryderyka Chopina (https://polishscores.org)
!!!YEM: License CC-BY-4.0 (https://creativecommons.org/licenses/by/4.0)
